!!!COM: Bach, Johann Sebastian
!!!CDT: 1685/3//-1750/7/28/
!!!OTL@@DE: Herr Gott, dich loben alle wir
!!!AGN: 4-Part Chorale
!!!SCT: BH 164
!!!SCT: BWV 326
**harm	**root	**kern	**kern	**kern	**kern
!	!	!bass	!tenor	!alto	!soprno
*	*Iorgan	*Iorgan	*Iorgan	*Iorgan	*Iorgan
*	*	*clefF4	*clefF4	*clefG2	*clefG2
*k[f#]	*k[f#]	*k[f#]	*k[f#]	*k[f#]	*k[f#]
*G:	*G:	*G:	*G:	*G:	*G:
*M3/4	*M3/4	*M3/4	*M3/4	*M3/4	*M3/4
*MM60	*MM60	*MM60	*MM60	*MM60	*MM60
I	4BB-	8GG	4B	4d	4g
.	.	8FF#	.	.	.
=1	=1	=1	=1	=1	=1
vi	2GG	8EE	2B	2e	2g
.	.	8FF#	.	.	.
.	.	8GG	.	.	.
.	.	8AA	.	.	.
I7	4BB-	8BB	4B	4d	4f#
.	.	8GG	.	.	.
=2	=2	=2	=2	=2	=2
IV	2EE-	8C	2G	2c	2e
.	.	8D	.	.	.
.	.	8E	.	.	.
.	.	8F#	.	.	.
I	4BB-	8G	4G	4B	4d
.	.	8F#	.	.	.
=3	=3	=3	=3	=3	=3
vi	4GG	8E	2G	4B	4g
.	.	8D	.	.	.
V7b/V	4CC	8C	.	4e	2a
.	.	8BB	.	.	.
V7d	4FF	8C	4F#	4d	.
.	.	8D	.	.	.
=4	=4	=4	=4	=4	=4
I;	2BB-;	2GG;	2G;	2d;	2b;
V/VI	4DD	4DD#	4F#	4f#	4b
=5	=5	=5	=5	=5	=5
vi	2.GG	8EE	2G	2e	2b
.	.	8BB	.	.	.
.	.	8E	.	.	.
.	.	8D	.	.	.
.	.	8C	4G	4e	4b
.	.	8BB	.	.	.
=6	=6	=6	=6	=6	=6
IV7	4EE-	8C	4G	4e	2a
.	.	8AA	.	.	.
V	4FF	8D	4F#	4d	.
.	.	8C	.	.	.
Ib	4BB-	8BB	4G	4d	4b
.	.	8AA	.	.	.
=7	=7	=7	=7	=7	=7
V7b	4FF	8GG	4A	4d	4cc
.	.	8FF#	.	.	.
I	2BB-	8GG	2G	2d	2b
.	.	8AA	.	.	.
.	.	8BB	.	.	.
.	.	8C	.	.	.
!!linebreak: 2
=8	=8	=8	=8	=8	=8
V;	2FF;	2D;	2F#;	2d;	2a;
vi	4GG	4E	4B	4e	4g
=9	=9	=9	=9	=9	=9
V	2FF	8F#	2A	2d	2a
.	.	8D	.	.	.
.	.	8E	.	.	.
.	.	8F#	.	.	.
vi7	4GG	8G	4G	8d	4b
.	.	8E	.	8g	.
=10	=10	=10	=10	=10	=10
ii7	4CC	8C	4G	4e	2a
.	.	8BB	.	.	.
V7d	4FF	8C	4F#	8d	.
.	.	8D	.	8c	.
vi	4GG	8E	4G	4B	4g
.	.	8BB	.	.	.
=11	=11	=11	=11	=11	=11
IV	4EE-	8C	8G	4e	4e
.	.	8GG	8B	.	.
vii7D	4AA	8AA	4c	4e	2f#
.	.	8FF#	.	.	.
V/VI	4DD	8BB	4B	4d#	.
.	.	8BBB	.	.	.
=12	=12	=12	=12	=12	=12
vi;	2GG;	2EE;	2B;	2e;	2g;
Vb	4FF	4F#	4A	4d	4dd
=13	=13	=13	=13	=13	=13
I	2BB-	8G	2B	2d	2b
.	.	8A	.	.	.
.	.	8G	.	.	.
.	.	8F#	.	.	.
vi	4GG	8E	4B	4e	4g
.	.	8D	.	.	.
=14	=14	=14	=14	=14	=14
V7d	2FF	8C	2F#	2d	2a
.	.	8E	.	.	.
.	.	8D	.	.	.
.	.	8C	.	.	.
iii7	4DD	8BB	4F#	4d	4cc
.	.	8AA	.	.	.
=15	=15	=15	=15	=15	=15
I	4BB-	8GG	2G	4d	4b
.	.	8BB	.	.	.
ii7b	4CC	8C	.	4e	2a
.	.	8AA	.	.	.
V7	4FF	8D	4F#	8d	.
.	.	8DD	.	8c	.
=16	=16	=16	=16	=16	=16
I;	2BB-;	2GG;	2D;	2B;	2g;
==	==	==	==	==	==
*-	*-	*-	*-	*-	*-
!!chor2scor: -l 2 -s 0.6 -o %b.pmx
!!!YEC: Copyright 2003 by Craig Stuart Sapp
!!!license: GNU General Public License (http://www.gnu.org/copyleft/gpl.html)
!!!SMA: 371 Bach Chorales, edited by Ludwig Erk, C.F. Peters
!!!PDT: 1850, 1865
